img/svg/icon-font/refer.svg

<svg width="22" height="22" viewBox="0 0 22 22" fill="none" xmlns="http://www.w3.org/2000/svg">
<g clip-path="url(#clip0)">
<path d="M10.7805 11.683C10.8532 11.6857 10.926 11.6875 10.9995 11.6875C11.0677 11.6875 11.1355 11.686 11.2031 11.6835C12.7419 11.7167 14.2554 12.1239 15.5927 12.8681C16.0074 13.0989 16.5308 12.9499 16.7615 12.5351C16.9923 12.1204 16.8433 11.597 16.4285 11.3662C15.8129 11.0237 15.1658 10.7413 14.4978 10.5218C15.9208 9.45497 16.8433 7.75502 16.8433 5.84375C16.8433 2.62143 14.2217 0 10.9995 0C7.77721 0 5.15578 2.62143 5.15578 5.84375C5.15578 7.7562 6.07927 9.45715 7.50379 10.5238C6.19878 10.9533 4.97417 11.6215 3.9023 12.5031C1.93732 14.1194 0.571051 16.3739 0.0552577 18.8514C-0.106379 19.6277 0.0873165 20.4249 0.586492 21.0389C1.08315 21.6497 1.81983 22 2.60737 22H9.32375C9.79825 22 10.1831 21.6153 10.1831 21.1406C10.1831 20.666 9.79825 20.2812 9.32375 20.2812H2.60737C2.24045 20.2812 2.01923 20.0765 1.91987 19.9545C1.74849 19.7436 1.6822 19.4694 1.73792 19.2017C2.63036 14.915 6.41329 11.7845 10.7805 11.683ZM6.87453 5.84375C6.87453 3.56926 8.72487 1.71875 10.9995 1.71875C13.274 1.71875 15.1245 3.56926 15.1245 5.84375C15.1245 8.04976 13.384 9.85663 11.2041 9.96371C11.1358 9.96237 11.0677 9.96153 10.9995 9.96153C10.9324 9.96153 10.8654 9.96254 10.7985 9.96371C8.61695 9.85864 6.87453 8.05093 6.87453 5.84375ZM21.9995 15.977C22.0004 16.551 21.776 17.0905 21.3679 17.4963L19.7695 19.0858C19.6018 19.2527 19.3826 19.3359 19.1636 19.3359C18.9429 19.3359 18.7222 19.2513 18.5541 19.0825C18.2195 18.746 18.221 18.202 18.5575 17.8673L19.6289 16.8018H14.7588C13.7994 16.8018 13.0191 17.5823 13.0191 18.5415C13.0191 19.5008 13.79 20.2812 14.7378 20.2812C15.2123 20.2812 15.5972 20.666 15.5972 21.1406C15.5972 21.6153 15.2123 22 14.7378 22C13.8135 22 12.9474 21.6391 12.2993 20.9837C11.655 20.3321 11.3003 19.4648 11.3003 18.5415C11.3003 16.6344 12.8517 15.083 14.7588 15.083H19.55L18.5592 14.1033C18.2218 13.7695 18.2186 13.2253 18.5525 12.8879C18.8861 12.5506 19.4303 12.5474 19.7678 12.8812L21.3637 14.4593C21.7729 14.864 21.9987 15.403 21.9995 15.977Z" fill="#4C51CB"/>
</g>
<defs>
<clipPath id="clip0">
<rect width="22" height="22" fill="white"/>
</clipPath>
</defs>
</svg>

<svg width="22" height="22" fill="none" xmlns="http://www.w3.org/2000/svg"><g clip-path="url(#clip0)"><path d="M10.78 11.683a5.89 5.89 0 00.423 0 9.464 9.464 0 014.39 1.185.86.86 0 10.835-1.502 11.097 11.097 0 00-1.93-.844 5.839 5.839 0 002.345-4.678A5.85 5.85 0 0011 0a5.85 5.85 0 00-5.843 5.844c0 1.912.923 3.613 2.348 4.68a11.166 11.166 0 00-3.602 1.98A11.212 11.212 0 00.055 18.85 2.61 2.61 0 002.607 22h6.717a.86.86 0 000-1.719H2.607a.873.873 0 01-.687-.326.898.898 0 01-.182-.753c.892-4.287 4.675-7.418 9.043-7.519zm-3.905-5.84a4.13 4.13 0 014.124-4.124 4.13 4.13 0 014.125 4.125 4.13 4.13 0 01-3.92 4.12 10.424 10.424 0 00-.405 0 4.13 4.13 0 01-3.924-4.12zM22 15.978c0 .574-.224 1.113-.632 1.52l-1.598 1.589a.856.856 0 01-1.216-.003.86.86 0 01.004-1.216l1.07-1.065h-4.87c-.959 0-1.739.78-1.739 1.74 0 .959.771 1.74 1.719 1.74a.86.86 0 010 1.718c-.925 0-1.79-.36-2.439-1.016a3.45 3.45 0 01-.999-2.443 3.462 3.462 0 013.459-3.458h4.791l-.99-.98a.86.86 0 111.208-1.222l1.596 1.578c.409.405.635.944.636 1.518z" fill="#4C51CB"/></g><defs><clipPath id="clip0"><path fill="#fff" d="M0 0h22v22H0z"/></clipPath></defs></svg>
